!!!SOCIAL_FUNCTION:	bird dance songs
!!!PDT:	1956
!!!OTL: No_176_Steal_Partner_Dance_Song_(e).krn
!!!LANG: Non-Tone
!!!LING_GROUP: Muskogean
!!!REG: Florida
**kern
*staff1
=1-
*clefF4
*k[f#]
*M2/4
8d\
24B\LL
24B\
24B\JJ
8G\
8r
=2||
*M3/8
8d\
24B\LL
24B\
24B\JJ
8G\
=3||
*M2/4
8B\L
16B\L
16G\JJ
8.B\L
16G\Jk
=4||
*M3/8
8D\
24E\LL
24E\
24D\JJ
8D\
=5||
*M2/4
8D\L
16G\L
16G\JJ
8G\
8r
=6
8D\L
16G\L
16G\JJ
8.G\L
16G\Jk
=7||
*M3/8
8D\L
16E\L
16D\J
8D\J
=8||
*M2/4
8B\L
16B\L
16B\JJ
8G\
8r
=9
8B\L
16d\L
16d\JJ
8.B\L
16G\Jk
=10||
*M3/8
8D\
24E\LL
24E\
24D\JJ
8D\
=11||
*M2/4
8D\L
16G\L
16G\JJ
8G\
8r
=12
8D\L
16G\L
16G\JJ
8.G\L
16G\Jk
=13
8D\L
16E\L
16D\JJ
4D\
==
*-
